other/rossman.svg

<svg width="48" height="48" version="1.1" viewBox="0 0 48 48" xmlns="http://www.w3.org/2000/svg">
 <path d="m24 2.5a21.501 21.546 0 0 0-16.171 7.3578h21.19l1.4451-2.648s1.0923-1.1593 2.3397-0.46662c1.2474 0.69266 0.53995 2.1011-0.07111 3.3077h7.6086a21.501 21.546 0 0 0-16.341-7.5509zm-18.332 10.346a21.501 21.546 0 0 0-3.1678 11.199 21.501 21.546 0 0 0 17.601 21.143l-10.033-9.6564 2.9063-4.6317c-4.8602-2.7831-1.9153-8.7577-1.9153-8.7577h-2.4659v9.7139c-1.3055-0.08025-2.3213-1.8228-2.3213-1.8228v-7.7992c0-2.4945 1.4451-2.5101 1.4451-2.5101s20.383 0.42724 20.791-0.15171c0.40834-0.57895-2.5003-5.9304-2.5003-5.9304zm36.825 0.20917-6.1681 0.68728-0.07111 11.125c3.0118 0 4.0151-0.57718 5.5855 0.94703 1.5703 1.5242-2.7319 8.252-2.7319 8.252l-2.397-1.986c2.5952-3.8519 1.5942-3.7766 1.5942-3.7766h-2.3213l-2.7067 5.4086-2.4842-1.5998 1.8488-3.8456h-5.0235l-4.1243 6.574 9.1592 8.9071a21.501 21.546 0 0 0 12.848-19.704 21.501 21.546 0 0 0-3.0072-10.99zm-22.842 14.994-4.6977 7.482 10.288 9.969a21.501 21.546 0 0 0 3.6013-0.51719l-9.9185-9.6449 4.5739-7.2889z" fill="none" stop-color="#000000" stroke="#fff" stroke-dashoffset="1.9" stroke-linecap="round" stroke-linejoin="round" style="paint-order:markers fill stroke"/>
</svg>

<svg xmlns="http://www.w3.org/2000/svg" viewBox="0 0 48 48"><defs><style>.a{fill:none;stroke:#fff;stroke-linecap:round;stroke-linejoin:round;}</style></defs><path class="a" d="M24,2.5A21.4817,21.4817,0,0,0,7.8291,9.8579h21.19L30.464,7.21a2.0292,2.0292,0,0,1,2.34-.4666c1.2474.6926.54,2.101-.0711,3.3076h7.6085A21.482,21.482,0,0,0,24,2.5ZM5.6682,12.846a21.469,21.469,0,0,0,14.433,32.3419L10.0683,35.5316,12.9746,30.9c-4.86-2.7831-1.9153-8.7577-1.9153-8.7577H8.5934v9.7139c-1.3054-.08-2.3212-1.8228-2.3212-1.8228V22.2341c0-2.4945,1.445-2.51,1.445-2.51s20.3829.4273,20.7909-.1517-2.5-5.93-2.5-5.93Zm36.8246.2092-6.168.6873-.0711,11.1249c3.0118,0,4.015-.5771,5.5854.9471s-2.7318,8.2519-2.7318,8.2519L36.71,32.08c2.5952-3.8518,1.5942-3.7765,1.5942-3.7765H35.9832l-2.7067,5.4085-2.4842-1.6,1.8488-3.8455H27.6177L23.4934,34.841l9.1591,8.9071a21.5486,21.5486,0,0,0,9.8407-30.6939ZM19.651,28.0492l-4.6976,7.4819L25.2413,45.5a21.4713,21.4713,0,0,0,3.6013-.5172L18.9241,35.338l4.5739-7.2888Z"/></svg>
